Icons/TM_Icons/more icons/number-02.svg

<?xml version='1.0' encoding='utf-8'?>
<ns0:svg xmlns:ns0="http://www.w3.org/2000/svg" version="1.1" viewBox="173.0 0.0 1480.0 1480.0" role="img" focusable="false" preserveAspectRatio="xMidYMid meet">
   <ns0:path fill="currentColor" d="M173 60c0 -204.667 72.167 -379.17 216.5 -523.5s318.833 -216.5 523.5 -216.5c204.67 0 379.17 72.1699 523.5 216.5s216.5 318.833 216.5 523.5s-72.1699 379.167 -216.5 523.5s-318.83 216.5 -523.5 216.5c-204.667 0 -379.167 -72.167 -523.5 -216.5 s-216.5 -318.833 -216.5 -523.5zM611 504h623v-175h-441c5.33301 -46 42 -95.334 110 -148l53 -40c12.001 -10.001 41.334 -29.335 88 -58c128.67 -78.667 193 -169.667 193 -273c0 -78.6699 -29.8398 -141 -89.5 -187c-59.6699 -46 -140.17 -69 -241.5 -69 c-42.667 0 -86.5 4.16992 -131.5 12.5s-91.167 20.8301 -138.5 37.5v192h84l2 -23c2.66895 -58.6699 12.3359 -93 29 -103c32.667 -20.6699 69.001 -31 109 -31c120 0 180 59.6699 180 179c0 96 -60.667 195.667 -182 299l-38 33c-106 91.333 -175.667 183.667 -209 277v77z " />
</ns0:svg>

<svg xmlns="http://www.w3.org/2000/svg" width="400" height="200" viewBox="-567 -680 2960 1480"><path fill="currentColor" d="M173 60c0-204.667 72.167-379.17 216.5-523.5S708.333-680 913-680c204.67 0 379.17 72.17 523.5 216.5S1653-144.667 1653 60s-72.17 379.167-216.5 523.5S1117.67 800 913 800q-307 0-523.5-216.5C173 367 173 264.667 173 60m438 444h623V329H793q8-69 110-148l53-40q18.001-15.002 88-58c128.67-78.667 193-169.667 193-273 0-78.67-29.84-141-89.5-187q-89.505-69-241.5-69c-42.667 0-86.5 4.17-131.5 12.5S683.333-412.67 636-396v192h84l2-23c2.669-58.67 12.336-93 29-103 32.667-20.67 69.001-31 109-31 120 0 180 59.67 180 179q0 144-182 299l-38 33Q661 287 611 427z"/></svg>
